src/assets/svg/google-icon.svg

<svg width="24" height="24" viewBox="0 0 24 24" fill="none" xmlns="http://www.w3.org/2000/svg">
<path fill-rule="evenodd" clip-rule="evenodd" d="M20.16 12.1932C20.16 11.5905 20.1059 11.011 20.0055 10.4546H12V13.7425H16.5746C16.3775 14.8051 15.7786 15.7053 14.8784 16.308V18.4407H17.6255C19.2327 16.961 20.16 14.7819 20.16 12.1932Z" fill="#4285F4"/>
<path fill-rule="evenodd" clip-rule="evenodd" d="M12.0002 20.5002C14.2952 20.5002 16.2193 19.7391 17.6257 18.4409L14.8786 16.3082C14.1175 16.8182 13.1439 17.1196 12.0002 17.1196C9.78635 17.1196 7.91248 15.6243 7.24407 13.6152H4.4043V15.8175C5.80294 18.5955 8.67749 20.5002 12.0002 20.5002Z" fill="#34A853"/>
<path fill-rule="evenodd" clip-rule="evenodd" d="M7.24387 13.6149C7.07387 13.1049 6.97728 12.5601 6.97728 11.9999C6.97728 11.4397 7.07387 10.8949 7.24387 10.3849V8.18262H4.40409C3.82841 9.33012 3.5 10.6283 3.5 11.9999C3.5 13.3715 3.82841 14.6697 4.40409 15.8172L7.24387 13.6149Z" fill="#FBBC05"/>
<path fill-rule="evenodd" clip-rule="evenodd" d="M12.0002 6.88069C13.2482 6.88069 14.3686 7.30955 15.2495 8.15183L17.6875 5.71387C16.2155 4.34227 14.2914 3.5 12.0002 3.5C8.67748 3.5 5.80294 5.40478 4.4043 8.18273L7.24407 10.385C7.91248 8.37592 9.78635 6.88069 12.0002 6.88069Z" fill="#EA4335"/>
</svg>

<svg xmlns="http://www.w3.org/2000/svg" width="24" height="24" fill="none"><path fill="#4285F4" fill-rule="evenodd" d="M20.16 12.193c0-.602-.054-1.182-.154-1.738H12v3.287h4.575a3.9 3.9 0 0 1-1.697 2.566v2.133h2.747c1.608-1.48 2.535-3.66 2.535-6.248" clip-rule="evenodd"/><path fill="#34A853" fill-rule="evenodd" d="M12 20.5c2.295 0 4.22-.76 5.626-2.06l-2.747-2.132c-.761.51-1.735.812-2.879.812-2.214 0-4.088-1.496-4.756-3.505h-2.84v2.203A8.5 8.5 0 0 0 12 20.5" clip-rule="evenodd"/><path fill="#FBBC05" fill-rule="evenodd" d="M7.244 13.615A5.1 5.1 0 0 1 6.977 12c0-.56.097-1.105.267-1.615V8.183h-2.84A8.5 8.5 0 0 0 3.5 12c0 1.371.328 2.67.904 3.817z" clip-rule="evenodd"/><path fill="#EA4335" fill-rule="evenodd" d="M12 6.88c1.248 0 2.369.43 3.25 1.272l2.438-2.438C16.215 4.342 14.29 3.5 12 3.5a8.5 8.5 0 0 0-7.596 4.683l2.84 2.202C7.912 8.375 9.786 6.881 12 6.881" clip-rule="evenodd"/></svg>
